X:11236
T:Mother Goose. JC.112
M:6/8
L:1/8
Q:120
S:John Clare,Poet,Helpston. (1793-1864)
R:Jig
O:England
A:Northamptonshire
N:
Z:P Headford
K:D
A|dedf2d|A2FF2A|dedf2d|g2ee2A|!
dedf2d|A2FF2A|d2f agf|gfge2:|!
|:A|d2f agf|gaba2g|d2f agf|g2ee2A|!
d2fa2f|gabg2f|b2gb2f|gfge2:|]
